src/staging/static/icons/sani-station.svg

<svg enable-background="new 0 0 283.14 282.438" height="282.438" viewBox="0 0 283.14 282.438" width="283.14" xmlns="http://www.w3.org/2000/svg"><path d="m289.249 263.906c0 13.594-11.039 24.641-24.641 24.641h-246.069c-13.601 0-24.633-11.047-24.633-24.641v-245.39c0-13.594 11.031-24.625 24.633-24.625h246.069c13.602 0 24.641 11.031 24.641 24.625zm-6.109-245.453c0-10.187-8.274-18.453-18.485-18.453h-246.163c-10.211 0-18.492 8.266-18.492 18.453v245.516c0 10.188 8.281 18.469 18.492 18.469h246.163c10.211 0 18.484-8.281 18.484-18.469v-245.516z" fill="#fff"/><path d="m283.14 18.453c0-10.187-8.274-18.453-18.485-18.453h-246.163c-10.211 0-18.492 8.266-18.492 18.453v245.516c0 10.188 8.281 18.469 18.492 18.469h246.163c10.211 0 18.484-8.281 18.484-18.469v-245.516z" fill="#4d5f85"/><g fill="#fff"><path d="m206.172 149.179h-160.812s0-91.094 0-103.891c0-12.812 11.391-28.453 34.172-28.453h156.539zm-55.492-76.844v-29.89h-68.304v29.891h68.304z"/><path d="m117.938 131.273c13.609 0 24.664 11.047 24.664 24.656s-11.055 24.641-24.664 24.641-24.672-11.031-24.672-24.641c0-13.609 11.063-24.656 24.672-24.656z"/><path d="m226.719 162.07v-12.578h-25.781l.188 12.578z"/><path d="m57.204 149.82h7.531v38.672h-7.531z"/><path d="m270.712 188.492v46.484c.195 14.984-16.055 30.766-34.711 30.625h-190.247c-21.773-.312-32.922-14.703-33.312-29.703v-47.406m71.098 44.484v-36.281h-58.305v36.281z"/><path d="m57.204 196.695h7.531v14.953h-7.531z"/><path d="m51.079 211.164 9.89 9.89 9.86-9.89z"/></g><path d="m57.172 188.507h7.539v8.328h-7.539z" fill="#4d5f85"/></svg>

<?xml version="1.0" encoding="utf-8"?>
<!-- Generator: Adobe Illustrator 17.0.0, SVG Export Plug-In . SVG Version: 6.00 Build 0)  -->
<!DOCTYPE svg PUBLIC "-//W3C//DTD SVG 1.1//EN" "http://www.w3.org/Graphics/SVG/1.1/DTD/svg11.dtd">
<svg version="1.1" xmlns="http://www.w3.org/2000/svg" xmlns:xlink="http://www.w3.org/1999/xlink" x="0px" y="0px"
	 width="283.14px" height="282.438px" viewBox="0 0 283.14 282.438" enable-background="new 0 0 283.14 282.438"
	 xml:space="preserve">
<g id="Background">
	<path fill="#FFFFFF" d="M289.249,263.906c0,13.594-11.039,24.641-24.641,24.641H18.539c-13.601,0-24.633-11.047-24.633-24.641
		V18.516c0-13.594,11.031-24.625,24.633-24.625h246.069c13.602,0,24.641,11.031,24.641,24.625V263.906z M283.14,18.453
		C283.14,8.266,274.866,0,264.655,0H18.492C8.281,0,0,8.266,0,18.453v245.516c0,10.188,8.281,18.469,18.492,18.469h246.163
		c10.211,0,18.484-8.281,18.484-18.469V18.453z"/>
	<path fill="#4D5F85" d="M283.14,18.453C283.14,8.266,274.866,0,264.655,0H18.492C8.281,0,0,8.266,0,18.453v245.516
		c0,10.188,8.281,18.469,18.492,18.469h246.163c10.211,0,18.484-8.281,18.484-18.469V18.453z"/>
</g>
<g id="Sani-station">
	<path fill="#FFFFFF" d="M206.172,149.179H45.36c0,0,0-91.094,0-103.891c0-12.812,11.391-28.453,34.172-28.453
		c22.75,0,156.539,0,156.539,0L206.172,149.179z M150.68,72.335V42.445H82.376v29.891H150.68z"/>
	<path fill="#FFFFFF" d="M117.938,131.273c13.609,0,24.664,11.047,24.664,24.656c0,13.609-11.055,24.641-24.664,24.641
		c-13.609,0-24.672-11.031-24.672-24.641C93.266,142.32,104.329,131.273,117.938,131.273z"/>
	<polygon fill="#FFFFFF" points="226.719,162.07 226.719,149.492 200.938,149.492 201.126,162.07 	"/>
	<rect x="57.204" y="149.82" fill="#FFFFFF" width="7.531" height="38.672"/>
	<path fill="#FFFFFF" d="M270.712,188.492v46.484c0.195,14.984-16.055,30.766-34.711,30.625H45.754
		c-21.773-0.312-32.922-14.703-33.312-29.703v-47.406 M83.54,232.976v-36.281H25.235v36.281H83.54z"/>
	<rect x="57.204" y="196.695" fill="#FFFFFF" width="7.531" height="14.953"/>
	<polygon fill="#FFFFFF" points="51.079,211.164 60.969,221.054 70.829,211.164 	"/>
	<rect x="57.172" y="188.507" fill="#4D5F85" width="7.539" height="8.328"/>
</g>
</svg>
